app/img/icons/f1.svg

<svg width="32" height="32" viewBox="0 0 32 32" fill="none" xmlns="http://www.w3.org/2000/svg">
<g clip-path="url(#clip0)">
<path d="M12.0097 28C5.36838 28 -0.015625 22.616 -0.015625 16C-0.015625 9.384 5.36838 4 11.9844 4C15.1897 4 18.203 5.24933 20.4684 7.516C21.4964 8.544 22.327 9.748 22.9377 11.0973C23.1657 11.6 22.9417 12.1933 22.439 12.4213C21.9337 12.6467 21.343 12.4253 21.115 11.9227C20.6044 10.7933 19.9097 9.78667 19.0537 8.93067C17.1657 7.04 14.655 6 11.9844 6C6.46971 6 1.98438 10.4853 1.98438 16C1.98438 21.5147 6.46971 26 11.9844 26C12.5364 26 12.9977 26.448 12.9977 27C12.9977 27.552 12.5617 28 12.0097 28Z" fill="#FA4616"/>
<path d="M11.3699 23.2933C11.3379 23.2933 11.3072 23.2919 11.2739 23.2893C7.4952 22.9319 4.64453 19.7973 4.64453 15.9986C4.64453 11.956 7.93386 8.66663 11.9765 8.66663C13.9272 8.66663 15.7699 9.42529 17.1632 10.8053C17.6219 11.264 18.0179 11.788 18.3445 12.368C18.6165 12.848 18.4459 13.4586 17.9645 13.7293C17.4845 13.9986 16.8725 13.8306 16.6032 13.3493C16.3659 12.9293 16.0792 12.5493 15.7539 12.2226C14.7405 11.2213 13.3979 10.6666 11.9765 10.6666C9.03653 10.6666 6.64453 13.0586 6.64453 15.9986C6.64453 18.7599 8.71653 21.0386 11.4632 21.2986C12.0125 21.3506 12.4165 21.8386 12.3645 22.3879C12.3152 22.9053 11.8805 23.2933 11.3699 23.2933Z" fill="#FA4616"/>
<path d="M11.9997 16.9999C11.7437 16.9999 11.4877 16.9026 11.293 16.7066C10.9023 16.3159 10.9023 15.6826 11.293 15.2919L19.9597 6.62528C20.3503 6.23461 20.9837 6.23461 21.3743 6.62528C21.765 7.01594 21.765 7.64928 21.3743 8.03994L12.7077 16.7066C12.5117 16.9026 12.2557 16.9999 11.9997 16.9999Z" fill="#FA4616"/>
<path d="M24.3333 8.00005H21C20.448 8.00005 20 7.55205 20 7.00005V3.66672C20 3.40139 20.1053 3.14672 20.2933 2.96005L22.96 0.293387C23.2467 0.00805386 23.6773 -0.0786128 24.0493 0.0760539C24.4227 0.230721 24.6667 0.596054 24.6667 1.00005V3.33339H27C27.404 3.33339 27.7693 3.57739 27.924 3.95072C28.0787 4.32405 27.9933 4.75472 27.7067 5.04005L25.04 7.70672C24.8533 7.89472 24.5987 8.00005 24.3333 8.00005ZM22 6.00005H23.9187L24.5853 5.33339H23.6667C23.1147 5.33339 22.6667 4.88539 22.6667 4.33339V3.41472L22 4.08139V6.00005Z" fill="#FA4616"/>
<path d="M23.3346 31.9999C18.556 31.9999 14.668 28.1119 14.668 23.3333C14.668 18.5546 18.556 14.6666 23.3346 14.6666C28.1133 14.6666 32.0013 18.5546 32.0013 23.3333C32.0013 28.1119 28.1133 31.9999 23.3346 31.9999ZM23.3346 16.6666C19.6586 16.6666 16.668 19.6573 16.668 23.3333C16.668 27.0093 19.6586 29.9999 23.3346 29.9999C27.0106 29.9999 30.0013 27.0093 30.0013 23.3333C30.0013 19.6573 27.0106 16.6666 23.3346 16.6666Z" fill="#FA4616"/>
<path d="M22.0009 26.6667C21.7703 26.6667 21.5383 26.5867 21.3503 26.4253L19.0169 24.4253C18.5983 24.0653 18.5489 23.4347 18.9089 23.0147C19.2689 22.5947 19.8983 22.5453 20.3196 22.9067L21.9236 24.2813L25.601 20.32C25.977 19.9146 26.609 19.892 27.0143 20.2667C27.4196 20.6427 27.4423 21.276 27.0676 21.68L22.7343 26.3467C22.5369 26.5587 22.269 26.6667 22.0009 26.6667Z" fill="#FA4616"/>
</g>
<defs>
<clipPath id="clip0">
<rect width="32" height="32" fill="white"/>
</clipPath>
</defs>
</svg>

<svg width="32" height="32" fill="none" xmlns="http://www.w3.org/2000/svg"><g clip-path="url(#clip0)" fill="#FA4616"><path d="M12.01 28C5.368 28-.016 22.616-.016 16s5.384-12 12-12c3.206 0 6.219 1.25 8.484 3.516a12.092 12.092 0 012.47 3.581 1.001 1.001 0 01-1.823.826 10.093 10.093 0 00-2.061-2.992A9.924 9.924 0 0011.984 6c-5.514 0-10 4.485-10 10s4.486 10 10 10c.552 0 1.014.448 1.014 1a.99.99 0 01-.988 1z"/><path d="M11.37 23.293a1.21 1.21 0 01-.096-.004A7.291 7.291 0 014.644 16c0-4.043 3.29-7.332 7.332-7.332 1.951 0 3.794.758 5.187 2.138.459.459.855.983 1.181 1.563a.998.998 0 11-1.74.981c-.238-.42-.525-.8-.85-1.126a5.348 5.348 0 00-3.777-1.556A5.338 5.338 0 006.645 16a5.3 5.3 0 004.818 5.3 1 1 0 01-.093 1.994z"/><path d="M12 17a1 1 0 01-.707-1.708l8.667-8.667a1 1 0 111.414 1.415l-8.666 8.667A.997.997 0 0112 17z"/><path d="M24.333 8H21a1 1 0 01-1-1V3.667c0-.266.105-.52.293-.707L22.96.293A1.001 1.001 0 0124.667 1v2.333H27a1.001 1.001 0 01.707 1.707L25.04 7.707a.996.996 0 01-.707.293zM22 6h1.919l.666-.667h-.918a1 1 0 01-1-1v-.918L22 4.08V6zm1.335 26c-4.779 0-8.667-3.888-8.667-8.667 0-4.778 3.888-8.666 8.667-8.666 4.778 0 8.666 3.888 8.666 8.666 0 4.779-3.888 8.667-8.666 8.667zm0-15.333a6.674 6.674 0 00-6.667 6.666A6.674 6.674 0 0023.335 30 6.674 6.674 0 0030 23.333a6.674 6.674 0 00-6.666-6.666z"/><path d="M22 26.667a.997.997 0 01-.65-.242l-2.333-2a1 1 0 011.303-1.518l1.604 1.374L25.6 20.32a1 1 0 011.467 1.36l-4.334 4.667a1 1 0 01-.733.32z"/></g><defs><clipPath id="clip0"><path fill="#fff" d="M0 0h32v32H0z"/></clipPath></defs></svg>
